X:1
T:Title
%%score { 1 | ( 2 3 ) }
L:1/8
M:6/8
K:G
V:1 treble nm="Grand Piano"
V:2 bass 
V:3 bass 
V:1
 z3 z2[Q:1/4=84] G | B2 B A2 A | G2 E [B,D]2 [B,D] | D2 D E2 G | B3 A2 G | B2 B A2 A | %6
 G2 E [B,D]2 [B,D] | E2 G G2 A | [B,G]6 | d3 d2 d | B3 G3 | [CFA]3 [B,G]2 [DFA] | B3 d3 | %13
 d>dd edB |[M:13/16] [FA]>GABGE3/2 |[M:3/4] [B,D]3 E GA |[M:5/8] [B,G]-[B,G]- [B,G]3 |] %17
V:2
 z3 z2 [G,C] | [G,D]2 [G,D] [D,F,D]2 [D,F,C] | [E,G,C]2 [C,G,C] [G,,G,]2 [G,,G,] | %3
 [G,B,]2 [G,B,] [G,C]2 [E,G,^C] | [D,D]3- [D,F,D]2 [G,B,] | [G,D]2 [G,D] [D,F,D]2 [D,F,C] | %6
 [E,G,B,]2 [C,G,C] [G,,G,]2 [G,,G,] | [C,G,C]2 [C,G,C] [D,G,B,]2 [D,F,C] | [G,,G,]6 | %9
 [G,B,G]3 [G,CG]2 [G,B,G] | [DG]3 B,3 | D,3 E,2 D, | [DG]3 [B,G]3 | %13
 [G,B,G]>[G,B,G][G,B,G] [G,CG][G,B,G][G,DG] |[M:13/16][K:bass] z/ z/ z/ z/ z [G,D]-<[G,D] z/ z | %15
[M:3/4] z2 z G, z2 |[M:5/8] [G,,G,]-[G,,G,]- [G,,G,]3 |] %17
V:3
 x6 | x6 | x6 | x6 | G,3 z3 | x6 | x6 | x6 | x6 | x6 | G,6 | x6 | G,6 | x6 | %14
[M:13/16][K:bass] [D,C]>[D,B,][D,F,D] z B,,[C,G,C]3/2 |[M:3/4] [G,,G,]3 [C,C]- [C,E,C][D,F,C] | %16
[M:5/8] x5 |] %17

